X:1
C: T. Tallis
M: none
L:1/2
%%staves [(S A) (T B)]
K:C
V:S clef=treble
c2 | c G | A2 || A2 | B c | c B | c2 |]
V:A clef=treble
E2 | E E | F2 || F2 | F E | D D | E2 |]
V:T clef=bass octave=-1
G2 | G c | c2 || c2 | F G | G G | G2 |]
V:B clef=bass octave=-1
C2 | C C | F2 || F2 | D C | G G | C2 |]
